X:9175
T:Lady of the Lake,2nd part. JNu.35
M:6/8
Q:120
S:James Nuttall MS,c1830?,Rossendale,East Lancs.
R:Jig
O:England
A:East Lancashire
Z:Chris Partington
K:A
"secundo"E|CEG CEG|CEG CEG|ABA CEG|Gccc2f|!
CEG CEG|CEG CEG|CDA CDA|CCCC2::!
A2A BAB|c2c cde|f2ed2c|cBAG3|!
A2A BAB|c2c cde|f2dG2F|E2EC2z:|]


